UI/Core-UI/SVG/settings_solid_24px.svg

<svg width="24" height="24" viewBox="0 0 24 24" fill="none" xmlns="http://www.w3.org/2000/svg">
<path d="M14.0001 2H10.0001L9.39008 4.44C8.41586 4.78736 7.51656 5.31675 6.74008 6L4.33008 5.3L2.33008 8.76L4.14008 10.51C3.94039 11.5202 3.94039 12.5598 4.14008 13.57L2.35008 15.32L4.35008 18.78L6.81008 18.08C7.57814 18.7371 8.46376 19.2427 9.42008 19.57L10.0001 22H14.0001L14.6301 19.49C15.5877 19.1656 16.4739 18.6597 17.2401 18L19.7101 18.71L21.7101 15.24L19.8601 13.45C19.9502 12.9719 19.9971 12.4866 20.0001 12C20.0012 11.4962 19.9509 10.9936 19.8501 10.5L21.6901 8.72L19.6901 5.26L17.2401 6C16.4668 5.33241 15.5746 4.81672 14.6101 4.48L14.0001 2ZM12.0001 16C11.209 16 10.4356 15.7654 9.7778 15.3259C9.12 14.8864 8.60731 14.2616 8.30456 13.5307C8.00181 12.7998 7.9226 11.9956 8.07694 11.2196C8.23128 10.4437 8.61224 9.73098 9.17165 9.17157C9.73106 8.61216 10.4438 8.2312 11.2197 8.07686C11.9956 7.92252 12.7999 8.00173 13.5308 8.30448C14.2617 8.60723 14.8864 9.11992 15.326 9.77772C15.7655 10.4355 16.0001 11.2089 16.0001 12C16.0001 13.0609 15.5787 14.0783 14.8285 14.8284C14.0784 15.5786 13.0609 16 12.0001 16Z" fill="#0F1621"/>
</svg>

<svg xmlns="http://www.w3.org/2000/svg" width="24" height="24" viewBox="0 0 24 24"><polygon points="0 0 24 0 24 24 0 24 0 0" style="fill:none"/><path d="M14,2H10L9.39,4.44A8.16,8.16,0,0,0,6.74,6L4.33,5.3l-2,3.46,1.81,1.75a7.89,7.89,0,0,0,0,3.06L2.35,15.32l2,3.46,2.46-.7a8,8,0,0,0,2.61,1.49L10,22h4l.63-2.51A7.87,7.87,0,0,0,17.24,18l2.47.71,2-3.47-1.85-1.79A8.1,8.1,0,0,0,20,12a7.41,7.41,0,0,0-.15-1.5l1.84-1.78-2-3.46L17.24,6a8.12,8.12,0,0,0-2.63-1.52L14,2ZM12,16a4,4,0,1,1,4-4,4,4,0,0,1-4,4Z"/></svg>
